X: 28195
T: Mrs. Berry's Daughters
R: hornpipe
M: 4/4
K: Dmajor
FG|:Adcd fdcd|Bgfg edcd|Bg (3ggg Af (3fff|edcB (3ABA (3GFE|
Adcd fdcd|Bgfg edcB|Aa (3aaa Ag (3ggg|1 edce dAFG:|2 edce defg||
|:(3aa^g ab afdf|(3ggf ga gece|(3ddc de fdgf|(3efe (3dcB (3ABA (3GFE|
Adcd fdcd|Bgfg edcB|Aa (3aaa Ag (3ggg|1 edce defg:|2 edce dAFG||

